X:1
T:O Glorious Fountain
T:O Glorious Fountain
T:James McGranahan
T:Francis Bottome, 1877
T:Public Domain Courtesy of the Cyber Hymnal™
C:James McGranahan
Z:Public Domain
Z:Courtesy of the Cyber Hymnal™
%%score ( 1 2 ) ( 3 4 )
L:1/8
Q:1/4=97
M:6/8
K:G
V:1 treble 
V:2 treble 
V:3 bass 
V:4 bass 
V:1
 D | [GB]2 [GB] (BA)[GB] | [Fc]2 [FA] [DF]2 D | [DG]2 [DG] [GB]2 [GB] | (d2 e) [Gd]2 [Ec] | %5
w: 1.~Be-|neath the glor- * ious|throne a- bove, The|crys- tal fount- ain|spring- * ing, A|
w: 2.~Through|all my soul * its|wa- ters flow, Thro’|all my na- ture|steal- * ing; And|
w: 3.~The|bar- ren wastes * are|fruit- ful lands, The|de- sert blooms with|ros- * es; And|
w: 4.~My|sun no more * goes|down by day, My|moon no more is|wan- * ing; My|
w: 5.~Oh,|depth of mer- * cy!|breadth of grace! Oh,|love of God un-|bound- * ed! My|
 [DB]2 [DB] (BA)[GB] | [Fc]2 [FA] [DF]2 D | [Dd]2 [DB] (GE)[=CA] | D3 D3 || %9
w: ri- ver full * of|life and love, Is|joy and glad- * ness|bring- ing.|
w: deep with- in * my|heart I know The|con- scious- ness * of|heal- ing.|
w: He, the glo- * ry|of all lands, His|love- ly face * dis-|clos- es.|
w: feet run swift * the|shin- ing way, The|heav’n- ly por- * tals|gain- ing.|
w: soul is lost * in|sweet a- maze, By|won- drous love * con-|found- ed.|
"^Refrain" [Gd]3 [^Gd][Gc][GB] | [Ac]3 [Ac]3 | [Fc]3 [Ac][GB][FA] | [GB]6 | [=FB]3 [FB][FA][DB] | %14
w: |||||
w: |||||
w: O glor- i- ous|fount- ain|now flow- ing so|free,|O fount- ain of|
w: |||||
w: |||||
 [Ed]3 !fermata![Ec]3 | [Ec]2 [EF] [FB]2 [DA] | [DG]3- [DG]2 |] %17
w: |||
w: |||
w: cleans- ing|o- pened wide for|me. *|
w: |||
w: |||
V:2
 D | x3 G2 x | x5 D | x6 | G3 x3 | x3 G2 x | x5 D | x3 ^C2 x | D3 D3 || x6 | x6 | x6 | x6 | x6 | %14
 x6 | x6 | x5 |] %17
V:3
 [G,B,] | [G,D]2 [G,D] [G,D]2 [G,D] | [D,D]2 [D,D] A,2 [F,C] | [G,B,]2 [G,B,] [G,D]2 [G,D] | %4
w: ~|~ ~ ~ ~|~ ~ ~ ~|~ ~ ~ ~|
 (B,2 C) [G,B,]2 G, | G,2 [G,B,] [G,D]2 [G,D] | [D,D]2 [D,D] [D,A,]2 [C,F,] | %7
w: ~ * ~ ~|~ ~ ~ ~|~ ~ ~ ~|
 [B,,G,]2 [E,G,] A,2 [A,,G,] | ([D,F,]2 [E,G,]) ([F,A,][G,B,][A,C]) || [G,B,]3 [E,B,][E,E][E,E] | %10
w: ~ ~ ~ ~|~ * ~ * *|~ ~ ~ ~|
 [A,E]3 [A,E]3 | [D,D]3 (DD)[D,D] | D6 | [G,D]3 [G,D][G,D]G, | [C,G,]3 !fermata![C,G,]3 | %15
w: ~ ~|~ flow- * ing,|flow-|ing so free, *||
 [D,F,]2 [D,A,] [D,D]2 [D,C] | [G,,G,B,]3- [G,,G,B,]2 |] %17
w: ||
V:4
 x | x6 | x3 (D,E,) x | x6 | G,3 G, x2 | G,2 x4 | x6 | x3 A,2 x | x6 || x6 | x6 | x3 D,2 x | %12
 G,,B,,D, G,3 | x5 G, | x6 | x6 | x5 |] %17

